X:5022
T:The Hairy Eel
M:9/8
L:1/8
Q:180
C:Aidan Crossey
R:Slip Jig
K:D
|:DFA DFA B2G|DFA DFA E2D|DFA DFA B2d|fed  cBA F2D :||
|:fed fed f2a|fed fed B2A|fed fed f2a|bag fga e2d:||
